webroot/img/new-desgin/price-icon.svg

<svg width="40" height="40" viewBox="0 0 40 40" fill="none" xmlns="http://www.w3.org/2000/svg">
<g id="Frame">
<g id="Group">
<path id="Vector" d="M19.4875 34.7189H5.4875C4.46 34.7189 3.625 33.8839 3.625 32.8564V6.99141L6.15 5.47016L9.22 7.32016C9.39526 7.42577 9.59601 7.48158 9.80062 7.48158C10.0052 7.48158 10.206 7.42577 10.3813 7.32016L13.45 5.47141L16.5062 7.32016C16.6814 7.42673 16.8823 7.4832 17.0873 7.48342C17.2923 7.48364 17.4934 7.4276 17.6688 7.32141L20.7375 5.47266L23.7937 7.32141C23.9689 7.42798 24.1698 7.48445 24.3748 7.48467C24.5798 7.48489 24.7809 7.42885 24.9562 7.32266L28.025 5.47391L30.5387 6.99391V14.9352C30.5387 15.2335 30.6573 15.5197 30.8683 15.7307C31.0792 15.9416 31.3654 16.0602 31.6637 16.0602C31.9621 16.0602 32.2483 15.9416 32.4592 15.7307C32.6702 15.5197 32.7887 15.2335 32.7887 14.9352V6.36016C32.7888 6.16661 32.7388 5.97634 32.6438 5.80773C32.5488 5.63912 32.4118 5.49788 32.2463 5.39766L28.6087 3.19766C28.4335 3.09163 28.2325 3.03547 28.0277 3.03525C27.8228 3.03503 27.6218 3.09075 27.4463 3.19641L24.3775 5.04516L21.3212 3.19641C21.146 3.09038 20.945 3.03422 20.7402 3.034C20.5353 3.03378 20.3343 3.0895 20.1588 3.19516L17.09 5.04391L14.0337 3.19516C13.8585 3.08913 13.6575 3.03297 13.4527 3.03275C13.2478 3.03253 13.0468 3.08825 12.8712 3.19391L9.8 5.04266L6.73 3.19266C6.55474 3.08706 6.35399 3.03125 6.14937 3.03125C5.94476 3.03125 5.74401 3.08706 5.56875 3.19266L1.91875 5.39266C1.75284 5.49293 1.61561 5.63432 1.52035 5.80315C1.42509 5.97199 1.37503 6.16256 1.375 6.35641V32.8564C1.37632 33.9467 1.81003 34.992 2.58098 35.7629C3.35194 36.5339 4.3972 36.9676 5.4875 36.9689H19.4875C19.7859 36.9689 20.072 36.8504 20.283 36.6394C20.494 36.4284 20.6125 36.1423 20.6125 35.8439C20.6125 35.5455 20.494 35.2594 20.283 35.0484C20.072 34.8374 19.7859 34.7189 19.4875 34.7189Z" fill="url(#paint0_linear_1019_15906)" stroke="url(#paint1_linear_1019_15906)" stroke-width="0.5"/>
<path id="Vector_2" d="M26.7192 14.9648C26.7192 14.6665 26.6007 14.3803 26.3897 14.1693C26.1787 13.9584 25.8926 13.8398 25.5942 13.8398H8.57422C8.27585 13.8398 7.9897 13.9584 7.77872 14.1693C7.56774 14.3803 7.44922 14.6665 7.44922 14.9648C7.44922 15.2632 7.56774 15.5494 7.77872 15.7603C7.9897 15.9713 8.27585 16.0898 8.57422 16.0898H25.5942C25.8926 16.0898 26.1787 15.9713 26.3897 15.7603C26.6007 15.5494 26.7192 15.2632 26.7192 14.9648ZM19.138 21.1073C19.138 20.809 19.0194 20.5228 18.8085 20.3118C18.5975 20.1009 18.3113 19.9823 18.013 19.9823H8.57547C8.2771 19.9823 7.99095 20.1009 7.77997 20.3118C7.56899 20.5228 7.45047 20.809 7.45047 21.1073C7.45047 21.4057 7.56899 21.6919 7.77997 21.9028C7.99095 22.1138 8.2771 22.2323 8.57547 22.2323H18.013C18.3113 22.2323 18.5975 22.1138 18.8085 21.9028C19.0194 21.6919 19.138 21.4057 19.138 21.1073ZM8.57422 26.1148C8.27585 26.1148 7.9897 26.2334 7.77872 26.4443C7.56774 26.6553 7.44922 26.9415 7.44922 27.2398C7.44922 27.5382 7.56774 27.8244 7.77872 28.0353C7.9897 28.2463 8.27585 28.3648 8.57422 28.3648H16.2342C16.5326 28.3648 16.8187 28.2463 17.0297 28.0353C17.2407 27.8244 17.3592 27.5382 17.3592 27.2398C17.3592 26.9415 17.2407 26.6553 17.0297 26.4443C16.8187 26.2334 16.5326 26.1148 16.2342 26.1148H8.57422ZM29.3405 26.3461C28.338 26.1173 28.1717 25.9036 28.1755 25.9161C28.1942 25.6336 28.803 25.4161 29.7117 25.3561C29.7726 25.6264 29.9311 25.8647 30.1568 26.0254C30.3826 26.1861 30.6596 26.2578 30.935 26.2268C31.2103 26.1959 31.4645 26.0644 31.6489 25.8576C31.8333 25.6508 31.9349 25.3832 31.9342 25.1061C31.9342 24.5623 31.7105 24.0348 31.3192 23.6561C31.0149 23.3661 30.6269 23.1794 30.2105 23.1223C30.197 22.8308 30.0704 22.5559 29.8575 22.3562C29.6446 22.1565 29.3622 22.0477 29.0704 22.0529C28.7786 22.0581 28.5002 22.1769 28.2946 22.3841C28.089 22.5913 27.9722 22.8705 27.9692 23.1623V23.4036C26.3492 23.9386 25.9805 25.0398 25.9305 25.7623C25.8355 27.1448 26.8155 28.0798 28.8417 28.5398C29.808 28.7598 30.0242 28.9948 30.0192 28.9811C30.0055 29.2411 29.343 29.4723 28.4705 29.5323C28.4096 29.2621 28.2512 29.0239 28.0256 28.8632C27.8 28.7025 27.5231 28.6307 27.2478 28.6615C26.9726 28.6923 26.7184 28.8236 26.5339 29.0302C26.3494 29.2368 26.2476 29.5041 26.248 29.7811C26.2451 30.2654 26.4191 30.7342 26.7375 31.0992C27.0558 31.4643 27.4965 31.7005 27.9767 31.7636C27.9902 32.0552 28.117 32.3301 28.33 32.5298C28.543 32.7295 28.8255 32.8382 29.1174 32.8328C29.4093 32.8274 29.6876 32.7084 29.8932 32.501C30.0987 32.2937 30.2152 32.0143 30.218 31.7223V31.4836C31.9842 30.9011 32.253 29.6473 32.2692 29.0336C32.293 28.1173 31.8055 26.9073 29.3405 26.3461Z" fill="url(#paint2_linear_1019_15906)" stroke="url(#paint3_linear_1019_15906)" stroke-width="0.5"/>
<path id="Vector_3" d="M29.0978 17.9141C23.8441 17.9141 19.5703 22.1878 19.5703 27.4416C19.5703 32.6953 23.8441 36.9691 29.0978 36.9691C34.3516 36.9691 38.6253 32.6953 38.6253 27.4416C38.6253 22.1878 34.3503 17.9141 29.0978 17.9141ZM29.0978 34.7191C25.0853 34.7191 21.8203 31.4541 21.8203 27.4416C21.8203 23.4291 25.0853 20.1641 29.0978 20.1641C33.1103 20.1641 36.3753 23.4291 36.3753 27.4416C36.3753 31.4541 33.1103 34.7191 29.0978 34.7191Z" fill="url(#paint4_linear_1019_15906)" stroke="url(#paint5_linear_1019_15906)" stroke-width="0.5"/>
</g>
</g>
<defs>
<linearGradient id="paint0_linear_1019_15906" x1="4.3173" y1="6.13133" x2="35.3116" y2="42.1854" gradientUnits="userSpaceOnUse">
<stop stop-color="#007BC4"/>
<stop offset="1" stop-color="#0B4C97"/>
</linearGradient>
<linearGradient id="paint1_linear_1019_15906" x1="4.3173" y1="6.13133" x2="35.3116" y2="42.1854" gradientUnits="userSpaceOnUse">
<stop stop-color="#007BC4"/>
<stop offset="1" stop-color="#0B4C97"/>
</linearGradient>
<linearGradient id="paint2_linear_1019_15906" x1="9.774" y1="15.5748" x2="25.3609" y2="41.1731" gradientUnits="userSpaceOnUse">
<stop stop-color="#007BC4"/>
<stop offset="1" stop-color="#0B4C97"/>
</linearGradient>
<linearGradient id="paint3_linear_1019_15906" x1="9.774" y1="15.5748" x2="25.3609" y2="41.1731" gradientUnits="userSpaceOnUse">
<stop stop-color="#007BC4"/>
<stop offset="1" stop-color="#0B4C97"/>
</linearGradient>
<linearGradient id="paint4_linear_1019_15906" x1="21.3551" y1="19.6547" x2="38.5071" y2="41.2098" gradientUnits="userSpaceOnUse">
<stop stop-color="#007BC4"/>
<stop offset="1" stop-color="#0B4C97"/>
</linearGradient>
<linearGradient id="paint5_linear_1019_15906" x1="21.3551" y1="19.6547" x2="38.5071" y2="41.2098" gradientUnits="userSpaceOnUse">
<stop stop-color="#007BC4"/>
<stop offset="1" stop-color="#0B4C97"/>
</linearGradient>
</defs>
</svg>

<svg width="40" height="40" fill="none" xmlns="http://www.w3.org/2000/svg"><g stroke-width=".5"><path d="M19.488 34.719h-14a1.864 1.864 0 0 1-1.863-1.863V6.991l2.525-1.52 3.07 1.85a1.125 1.125 0 0 0 1.161 0l3.069-1.85 3.056 1.85a1.12 1.12 0 0 0 1.163 0l3.069-1.848 3.056 1.848a1.12 1.12 0 0 0 1.162.002l3.069-1.85 2.514 1.52v7.942a1.125 1.125 0 0 0 2.25 0V6.36a1.124 1.124 0 0 0-.543-.962l-3.637-2.2a1.125 1.125 0 0 0-1.163-.002l-3.069 1.85-3.056-1.85a1.125 1.125 0 0 0-1.162 0L17.09 5.043l-3.056-1.849a1.125 1.125 0 0 0-1.163-.001L9.8 5.043l-3.07-1.85a1.125 1.125 0 0 0-1.161 0l-3.65 2.2a1.126 1.126 0 0 0-.544.963v26.5a4.117 4.117 0 0 0 4.112 4.113h14a1.125 1.125 0 1 0 0-2.25Z" fill="url(#a)" stroke="url(#b)"/><path d="M26.72 14.965a1.125 1.125 0 0 0-1.126-1.125H8.574a1.125 1.125 0 0 0 0 2.25h17.02a1.125 1.125 0 0 0 1.125-1.125Zm-7.582 6.142a1.125 1.125 0 0 0-1.125-1.125H8.575a1.125 1.125 0 0 0 0 2.25h9.438a1.125 1.125 0 0 0 1.125-1.125ZM8.574 26.115a1.125 1.125 0 0 0 0 2.25h7.66a1.125 1.125 0 1 0 0-2.25h-7.66Zm20.767.231c-1.003-.229-1.17-.442-1.166-.43.02-.282.628-.5 1.537-.56a1.125 1.125 0 0 0 2.222-.25c0-.544-.224-1.071-.615-1.45a2.001 2.001 0 0 0-1.108-.534 1.122 1.122 0 0 0-2.242.04v.242c-1.62.535-1.989 1.636-2.039 2.358-.095 1.383.886 2.318 2.912 2.778.966.22 1.182.455 1.177.441-.013.26-.676.491-1.548.551a1.125 1.125 0 0 0-2.223.25 1.987 1.987 0 0 0 1.729 1.982 1.122 1.122 0 0 0 2.241-.042v-.238c1.766-.583 2.035-1.837 2.051-2.45.024-.917-.463-2.127-2.928-2.688Z" fill="url(#c)" stroke="url(#d)"/><path d="M29.098 17.914c-5.254 0-9.528 4.274-9.528 9.528 0 5.253 4.274 9.527 9.528 9.527 5.254 0 9.527-4.274 9.527-9.527 0-5.254-4.275-9.528-9.527-9.528Zm0 16.805c-4.013 0-7.278-3.265-7.278-7.277 0-4.013 3.265-7.278 7.278-7.278 4.012 0 7.277 3.265 7.277 7.278 0 4.012-3.265 7.277-7.277 7.277Z" fill="url(#e)" stroke="url(#f)"/></g><defs><linearGradient id="a" x1="4.317" y1="6.131" x2="35.312" y2="42.185" gradientUnits="userSpaceOnUse"><stop stop-color="#007BC4"/><stop offset="1" stop-color="#0B4C97"/></linearGradient><linearGradient id="b" x1="4.317" y1="6.131" x2="35.312" y2="42.185" gradientUnits="userSpaceOnUse"><stop stop-color="#007BC4"/><stop offset="1" stop-color="#0B4C97"/></linearGradient><linearGradient id="c" x1="9.774" y1="15.575" x2="25.361" y2="41.173" gradientUnits="userSpaceOnUse"><stop stop-color="#007BC4"/><stop offset="1" stop-color="#0B4C97"/></linearGradient><linearGradient id="d" x1="9.774" y1="15.575" x2="25.361" y2="41.173" gradientUnits="userSpaceOnUse"><stop stop-color="#007BC4"/><stop offset="1" stop-color="#0B4C97"/></linearGradient><linearGradient id="e" x1="21.355" y1="19.655" x2="38.507" y2="41.21" gradientUnits="userSpaceOnUse"><stop stop-color="#007BC4"/><stop offset="1" stop-color="#0B4C97"/></linearGradient><linearGradient id="f" x1="21.355" y1="19.655" x2="38.507" y2="41.21" gradientUnits="userSpaceOnUse"><stop stop-color="#007BC4"/><stop offset="1" stop-color="#0B4C97"/></linearGradient></defs></svg>
